X:1
T:James Gibb editions
T:Sleep thy last sleep - Barnby
%%score [ ( 1 2 ) ( 3 4 ) ]
L:1/8
Q:1/4=88
M:2/2
K:D
V:1 treble nm="Midi_74"
V:2 treble 
V:3 bass nm="Midi_74"
V:4 bass 
V:1
"^Requiem (46. 46. D)""^Sleep thy last sleep""^Joseph Barnby\n(1838-96)""^Edward Arthur Dayman\n(1807-90)""^I" D4 D2 D2 | %1
 D8 || G3 G F2 E2 | E4 F2 z2 || F4 F2 F2 |[M:2/2] F8 || B3 B A2 ^G2 | ^G4 A2 x2 || %8
 A4!<(! A2 A2!<)! |!>(! A8!>)! || B3 B B2 B2 | B4 B4 || %12
[Q:1/4=85]"^rall." !>!c4[Q:1/4=82] !>!B2[Q:1/4=80] !>!A2 | %13
[Q:1/4=77]!>(! (d4[Q:1/4=76] !fermata!D4)!>)! |"^slower"[Q:1/4=80] D3 D D2 G2 | E4 D4 || D8 | D8 |] %18
V:2
 A,4 A,2 A,2 | B,8 || D3 D C2 C2 | C4 D2 z2 || E4 E2 E2 |[M:2/2] D8 || F3 F ^E2 E2 | ^E4 F2 z2 || %8
w: Sleep thy last|sleep,|free from care and|sor- row;|rest, where none|weep,|till th'e- ter- nal|mor- row;|
 (C2 D2) E2 F2 | (E4 D4) || ^D2!<(! E2 F2!<)! G2 | F4 E4 || !>!E4 !>!D2 !>!C2 | (D4 =C4) | %14
w: though * dark waves|roll *|o'er the si- lent|ri- ver,|thy fain- ting|soul *|
 B,3 B, B,2 B,2 | C4 D4 || B,8 | A,8 |] %18
w: Je- sus can de-|li- ver.|A-|men.|
V:3
 F,4 F,2 F,2 | F,8 || B,3 B, A,2 G,2 |"^1" G,4 F,2 z2 || ^A,4 A,2 A,2 |[M:2/2] B,8 || D3 D C2 B,2 | %7
 B,4 A,2 z2 || (E,2 F,2) G,2 A,2 | (G,4 F,4) ||!mf! F,2 G,2 x2 B,2 | A,4 G,4 || %12
 !>!G,4 !>!G,2 !>!G,2 | F,8 | G,3 G, G,2 E,2 | G,4 F,4 || G,8 | F,8 |] %18
V:4
 D,4 D,2 D,2 | B,,8 || G,,3 G,, A,,2 A,,2 | A,,4 D,2 x2 || C,4 C,2 C,2 |[M:2/2] B,,8 || %6
 ^G,,3 G,, C,2 C,2 | C,4 F,2 z2 || A,,4 A,,2 A,,2 | D,8 || B,,2 B,,2 B,,2 B,,2 | E,4 E,4 || %12
 !>!A,,4 !>!A,,2 !>!A,,2 | (B,,4 !fermata!A,,4) | G,,3 G,, G,,2 G,,2 | A,,4 D,4 || G,,8 | D,8 |] %18

